X:1
T: Kirk's Hornpipe
C:
R:Reel
Q: 232
K:D
M:4/4
L:1/8
AG|:FG AF D2 d2|cd ec A2 ef|gf ed B2 ed|c2 A2 A2 AG|
FG AF D2 d2|cd ec A2 ef|gf ed Bd ce|d2 d2 d2:|
|:fg|af df a2 ba|ge ce g2 g2|fe dc B2 ed|c2 A2 A2 fg|
af df a2 ba|ge ce g2 ag|fe dc bd ce|d2 d2 d2:|
